polaris-icons/icons/new-icons/CalendarTickMajor.svg

<svg width="20" height="20" viewBox="0 0 20 20" fill="none" xmlns="http://www.w3.org/2000/svg">
<path fill-rule="evenodd" clip-rule="evenodd" d="M7.75 3.5C7.75 3.08579 7.41421 2.75 7 2.75C6.58579 2.75 6.25 3.08579 6.25 3.5V3.90665C6.00413 3.96421 5.77128 4.04472 5.54754 4.15873C4.84193 4.51825 4.26825 5.09193 3.90873 5.79754C3.68239 6.24175 3.58803 6.7219 3.54336 7.26853C3.49999 7.79944 3.49999 8.45505 3.5 9.26789V10.7812C3.49999 11.5712 3.49999 12.2085 3.54103 12.725C3.58328 13.2566 3.6725 13.7242 3.88673 14.1586C4.25184 14.899 4.85105 15.4982 5.59142 15.8633C6.02582 16.0775 6.49338 16.1667 7.02504 16.209C7.54151 16.25 8.17871 16.25 8.9687 16.25H9C9.41421 16.25 9.75 15.9142 9.75 15.5C9.75 15.0858 9.41421 14.75 9 14.75C8.17148 14.75 7.59394 14.7494 7.14386 14.7137C6.70219 14.6786 6.44781 14.6131 6.25485 14.518C5.81063 14.2989 5.4511 13.9394 5.23204 13.4951C5.13688 13.3022 5.07141 13.0478 5.03632 12.6061C5.00055 12.1561 5 11.5785 5 10.75V9.5H15V11C15 11.4142 15.3358 11.75 15.75 11.75C16.1642 11.75 16.5 11.4142 16.5 11V9.26788C16.5 8.45505 16.5 7.79944 16.4566 7.26853C16.412 6.7219 16.3176 6.24175 16.0913 5.79754C15.7317 5.09193 15.1581 4.51825 14.4525 4.15873C14.2287 4.04472 13.9959 3.96421 13.75 3.90665V3.5C13.75 3.08579 13.4142 2.75 13 2.75C12.5858 2.75 12.25 3.08579 12.25 3.5V3.75859C11.8765 3.74999 11.456 3.75 10.9821 3.75H9.0179C8.54396 3.75 8.12348 3.74999 7.75 3.75859V3.5ZM14.991 8C14.9855 7.77183 14.9764 7.57123 14.9616 7.39068C14.9245 6.9368 14.8554 6.67604 14.7548 6.47852C14.539 6.05516 14.1948 5.71095 13.7715 5.49524C13.574 5.3946 13.3132 5.32547 12.8593 5.28838C12.3967 5.25058 11.8025 5.25 10.95 5.25H9.05C8.19755 5.25 7.60331 5.25058 7.14068 5.28838C6.68681 5.32547 6.42604 5.3946 6.22852 5.49524C5.80516 5.71095 5.46095 6.05516 5.24524 6.47852C5.1446 6.67604 5.07547 6.9368 5.03838 7.39068C5.02363 7.57123 5.01455 7.77183 5.00895 8H14.991Z" fill="#4A4A4A"/>
<path d="M17.2803 12.7197C17.5732 13.0126 17.5732 13.4874 17.2803 13.7803L13.7803 17.2803C13.4874 17.5732 13.0126 17.5732 12.7197 17.2803L10.9697 15.5303C10.6768 15.2374 10.6768 14.7626 10.9697 14.4697C11.2626 14.1768 11.7374 14.1768 12.0303 14.4697L13.25 15.6893L16.2197 12.7197C16.5126 12.4268 16.9874 12.4268 17.2803 12.7197Z" fill="#4A4A4A"/>
</svg>

<svg viewBox="0 0 20 20" xmlns="http://www.w3.org/2000/svg"><path fill-rule="evenodd" d="M7.75 3.5a.75.75 0 0 0-1.5 0v.407a3.075 3.075 0 0 0-.702.252 3.75 3.75 0 0 0-1.64 1.639c-.226.444-.32.924-.365 1.47-.043.531-.043 1.187-.043 2v1.513c0 .79 0 1.428.041 1.944.042.532.131 1 .346 1.434a3.75 3.75 0 0 0 1.704 1.704c.435.215.902.304 1.434.346.517.041 1.154.041 1.944.041h.031a.75.75 0 0 0 0-1.5c-.829 0-1.406 0-1.856-.036-.442-.035-.696-.1-.89-.196a2.25 2.25 0 0 1-1.022-1.023c-.095-.193-.16-.447-.196-.889-.035-.45-.036-1.027-.036-1.856v-1.25h10v1.5a.75.75 0 0 0 1.5 0v-1.732c0-.813 0-1.469-.043-2-.045-.546-.14-1.026-.366-1.47a3.75 3.75 0 0 0-1.639-1.64 3.076 3.076 0 0 0-.702-.251v-.407a.75.75 0 0 0-1.5 0v.259c-.373-.009-.794-.009-1.268-.009h-1.964c-.474 0-.895 0-1.268.009v-.259Zm7.241 4.5a10.674 10.674 0 0 0-.03-.61c-.037-.453-.106-.714-.206-.911a2.25 2.25 0 0 0-.984-.984c-.197-.1-.458-.17-.912-.207-.462-.037-1.056-.038-1.909-.038h-1.9c-.852 0-1.447 0-1.91.038-.453.037-.714.107-.911.207a2.25 2.25 0 0 0-.984.984c-.1.197-.17.458-.207.912-.014.18-.023.38-.03.609h9.983Z" fill="#5C5F62"/><path d="M17.28 12.72a.75.75 0 0 1 0 1.06l-3.5 3.5a.75.75 0 0 1-1.06 0l-1.75-1.75a.75.75 0 1 1 1.06-1.06l1.22 1.22 2.97-2.97a.75.75 0 0 1 1.06 0Z" fill="#5C5F62"/></svg>
